!!!COM: Bach, Johann Sebastian
!!!OPR: Joh. Seb. Bachs vierstimmige Choralges‰nge
!!!XEN: Four-part Chorales
!!!OTL: 85. Herr, straf' mich nicht in deinem Zorn
!!!SCT: BWV 338
!!!SCA: Thematisch-systematisches Verzeichnis der musikalischen Werke Johann Sebastian Bach: Bach-Werke-Verzeichnis (Schmieder)
!!!YOR: Bach Gesellschaft Edition xxxix
!!!ENC: Steven Rasmussen
!!!CDT: 1685/3//-1750/7/28/
!!!OCY: Deutschland
!!!YEC: Copyright (c) 1994, 2000 Center for Computer Assisted Research in the Humanities
!!!YEM: Rights to all derivative editions reserved
!!!YEN: United States of America
**kern	**kern	**kern	**kern	**silbe
*I:[BASSO]	*I:[TENORE]	*I:[ALTO]	*I:[SOPRANO]	*I:[SOPRANO]
*>[A,A,B]	*>[A,A,B]	*>[A,A,B]	*>[A,A,B]	*
*>A	*>A	*>A	*>A	*
*clefF4	*clefGv2	*clefG2	*clefG2	*
*k[]	*k[]	*k[]	*k[]	*
*a:	*a:	*a:	*a:	*
*M4/4	*M4/4	*M4/4	*M4/4	*
4AA	4c	4e	4a	Herr,sonst
=1	=1	=1	=1	=1
4A	4e	4a	4cc	straf'bin
4E	8.eL	8aL	4b	michich
.	.	8gJ	.	.
.	16dJk	.	.	.
8FL	4c	4f	4a	nichtganz
8EJ	.	.	.	.
8DL	4d	4f	4a	inund
8CJ	.	.	.	.
=2	=2	=2	=2	=2
8BBL	8dL	8fL	4g	dei-gar
8C#J	8AJ	8eJ	.	.
4D	4A	8eL	4f	-nemver-
.	.	8dJ	.	.
4AA;	4A;	4c#;	4e;	Zorn,-lor'n,
4Cn	4A	4e	4e	dasmit
=3	=3	=3	=3	=3
8CL	4A	8.dL	4f#	bitt'dir
16DL	.	.	.	.
16CJJ	.	16eJk	.	.
8BBL	8dL	8fL	4g#	ichist
8EJ	16cL	8eJ	.	.
.	16BJJ	.	.	.
8CL	8cL	8eL	4a	dichnicht
8BBJ	8dJ	16f#L	.	.
.	.	16g#JJ	.	.
8AAL	4e	4a	4cc	vonzu
8CJ	.	.	.	.
=4	=4	=4	=4	=4
8DL	8fL	4a	2b	Her-scher-
8BBJ	8d	.	.	.
4E	8B	4g#	.	.
.	16eL	.	.	.
.	16dJJ	.	.	.
4AA;	4c;	4e;	4a;	-zen,-zen,
=:|!	=:|!	=:|!	=:|!	=:|!
*>B	*>B	*>B	*>B	*
4E	4e	4gn	4b	und
=5	=5	=5	=5	=5
8BL	4d#	4f#	4b	z√ºcht'-
8AJ	.	.	.	.
8GL	4e	4g	4b	-ge
8F#J	.	.	.	.
8EL	4B	4f#	4b	mich
8D#J	.	.	.	.
4E	8BL	8f#L	4g	nicht
.	8cJ	8eJ	.	.
=6	=6	=6	=6	=6
4F#	8cL	8eL	4a	in
.	16dL	8dJ	.	.
.	16cJJ	.	.	.
4G#	16BLL	8dL	4b	dein'm
.	16AJ	.	.	.
.	8BJ	8eJ	.	.
4A;	4A;	4e;	4cc;	Grimm,
4E	4G	4e	4b	weil
=7	=7	=7	=7	=7
4D#	4B	(16f#LL	4b	ich
.	.	16gJJ	.	.
.	.	4a)	.	.
4Dn	4e	.	4b	so
.	.	8g#	.	.
8CL	4e	4.a	4cc	voll
8DJ	.	.	.	.
4E	8.eL	.	4b	Be-
.	.	8gn	.	.
.	16dJk	.	.	.
=8	=8	=8	=8	=8
8FL	4c	8gL	4a	-tr√ºb-
8EJ	.	16fL	.	.
.	.	16eJJ	.	.
4F	8BL	4d	4a	-niss
.	8AJ	.	.	.
4E;	4B;	4e;	4g#;	bin,
8EL	4B	4e	4g#	und
8DJ	.	.	.	.
=9	=9	=9	=9	=9
8CL	4c	4e	4a	lei-
8BBJ	.	.	.	.
8AAL	4B	4e	4b	-de
8GG#J	.	.	.	.
4AA	4A	8eL	4cc	gro-
.	.	16aL	.	.
.	.	16g#JJ	.	.
8FL	8AL	4a	4dd	-sse
8DJ	8fJ	.	.	.
=10	=10	=10	=10	=10
2E	8eL	8aL	2b	Schmer-
.	8B	16g#L	.	.
.	.	16f#JJ	.	.
.	8e	4g#	.	.
.	8dJ	.	.	.
4AA;	4c#;	4e;	4a;	-zen.
==|!	==|!	==|!	==|!	==|!
*-	*-	*-	*-	*-
!!!RWG: Key is interpreted using the Humdrum key tool.
!!!END: 1994/06/10
!!!EMD: Converted from MuseData to Humdrum Dec 19, 2000, by Andreas Kornstaedt using muse2kern.
!!!EED: Craig Stuart Sapp
!!!EEV: 2024/03/31
!!!ONB: Some non-unicode characters
